X:1
T:(unknown title)
M:3/4
L:1/4
K:D
 D/2E/2| F D F| G F G| A d2-| d2 B| A F A| B A F| E3-| E2 E| F D F|\
 G F G| A d2-| d2 d| B G B| d c B| A3-| A2 A| A c d| e c B| A d2-|\
 d2 A| B G B| d c B| A3-| A D E| F D F| G F G| A d2-| d2 A/2B/2| c B A|\
 G F E| D3-| D2 D/2D/2| F D F| G F G| A d3/2 B/2| A2 B/2c/2| d3/2 F/2 F|\
 F E D| F E D| E2 D/2D/2| F D F| G F G| A d3/2 B/2| A B c| d3/2 A/2 F|\
 A G E| D3-| D2||

